X: 56
T: Vintervals
C: Michael Sommer
M: 3/4
L: 1/4
R: waltz
K: F
|: "F"Ffe | "Bb"d>ef | "C"c2B | "F"A>FG/A/ | "Gm"B>cd | "F"(cAF) | "G7"(FEF) | "C7"G3 | 
"F"Ffe | "Bb"d>ef | "C"c2B | "Dm"A>FG/A/ | "Gm"B>cd | "C"(efg) | "F"f>f"Bb"f | "F"f2 z :| 
|: "Dm"agf | "Am"e>fg | "Bb"d>ef | "F"c2A | "Gm"B>cd| "F"(Acf) | "G7"(fef) | "C7"g3 |
"F"agf | "Fmaj7"e>fg | "Bb"d>ef | "F"c2A | "Gm"B>cd| "C7"(efg) | "F"f>ff | "F"f2 z :|

